X:0
T:Teribus ye Teri Odin
G:song or march
N:the Hawick border tune noted by J. Fingland
S:NLS Acc.8985/103(1), Francis Collinson papers
M:2/4
L:1/8
Q:1/4=100
K:AMix
% sixth gap because the tune doesn't go that high or low
A>A A/B/c|e>e cA|A>A A/B/c|dd  Bd |\
c>d ee   |e>e cA|A>A A/B/c|d>d Bd |
cA  AA   |ce  cA|BG  GG   |Bd  BG |\
A>A AA   |ce  cA|B>A GA   |Bd  BG|]
